icons/material-file/vedic.svg

<?xml version="1.0" encoding="UTF-8" standalone="no"?>
<svg
   viewBox="0 0 16 16"
   version="1.1"
   id="svg1"
   width="16"
   height="16"
   xmlns="http://www.w3.org/2000/svg"
   xmlns:svg="http://www.w3.org/2000/svg">
  <defs
     id="defs1" />
  <path
     fill="#ff3d00"
     d="M 4.4187338,14.982119 C 2.8457672,14.420024 1.7036782,13.021322 1.2514395,11.103325 1.0462138,10.232824 0.98819328,8.7944098 1.1583473,8.7944098 c 0.056513,0 0.2075048,0.394666 0.335466,0.877094 0.2800904,1.0556302 0.7577995,2.0482752 1.2192733,2.5334712 0.7665055,0.805932 2.6650107,1.121578 3.7588856,0.624951 C 7.3240838,12.443034 7.66964,11.523545 7.2991017,10.628956 7.0127459,9.9376804 6.363175,9.7065764 5.1531787,9.8653787 c 0,0 -0.7415243,-0.7982013 -0.9777945,-2.2157025 l 0.7600769,0.068926 C 5.8509228,7.8016049 6.5421164,7.5992662 6.9008553,7.1432039 7.2379899,6.714646 7.2307066,6.5488865 6.8555333,6.1128005 6.3142306,5.4834516 5.3422543,5.6428637 3.3742965,6.6837642 L 2.3813253,5.0192509 2.797596,4.7017284 C 3.8408159,3.9060094 5.6522098,3.5082108 6.6831002,3.8484367 7.622079,4.158351 8.3112798,5.3879991 8.1271698,6.4249126 8.0027078,7.1259526 7.4406147,8.1078157 7.0063198,8.3827798 L 6.6317945,8.6199454 7.1491314,8.8532045 C 8.028219,9.2496206 8.5649236,8.946582 9.2061128,7.6917076 10.093501,5.9551374 10.668981,5.5055853 12.007303,5.5036728 c 0.623125,-8.939e-4 0.844911,0.064447 1.299386,0.382948 1.13436,0.7949054 1.751992,2.4409868 1.616301,4.3075522 -0.171823,2.363968 -1.291576,3.797867 -2.965852,3.797867 -0.918841,0 -1.511124,-0.322244 -1.9825668,-1.078783 -0.414073,-0.664543 -0.6007049,-1.980653 -0.3628887,-2.55955 0.1140872,-0.27777 0.1346747,-0.287169 0.1421618,-0.06499 0.01371,0.408499 0.4784797,1.072433 0.9051267,1.293081 1.046881,0.541385 2.549744,-0.138784 3.144307,-1.423035 0.451423,-0.9750245 0.209253,-2.8556671 -0.410411,-3.1873086 -0.129632,-0.06941 -0.45,-0.1261707 -0.711905,-0.1261707 -0.556682,0 -0.993867,0.4002395 -1.60678,1.4709635 C 10.862244,8.68642 10.505621,9.1647382 10.281678,9.3791197 9.9177726,9.7274859 9.787859,9.7689462 9.0600863,9.7689462 H 8.2456516 l 0.2632453,0.5847558 c 0.3768043,0.836938 0.3589839,2.196823 -0.039629,3.024687 -0.3522287,0.731514 -1.1666645,1.472062 -1.8177403,1.652958 -0.6338256,0.176091 -1.6659781,0.153311 -2.2327912,-0.04924 M 7.4856149,3.6700287 C 7.1253299,3.0552454 6.9036252,1.9075408 7.1451041,1.9075408 7.4288154,2.522976 8.0103163,3.0720487 8.6330335,3.4551596 9.7513622,3.9965437 10.885394,3.7780529 12.12428,2.7823968 c 0.272767,-0.2191815 0.514286,-0.3741186 0.536746,-0.3442941 0.302549,0.4694484 0.825826,0.8530876 0.998788,1.3986213 0,0.2302081 -0.990855,0.8926775 -1.77274,1.1852181 C 9.9491428,5.5801697 8.6302264,5.3593204 7.4856149,3.6700287 M 8.4621886,2.2489474 9.7238983,0.84999962 11.125977,2.1479214 C 10.646399,2.5429532 10.300192,3.1559462 9.7522982,3.4668374 9.3193859,3.1476869 8.6732739,2.7714115 8.4621886,2.2489474"
     class="colorff4500 svgShape"
     id="path1"
     style="stroke-width:0.999996" />
</svg>

<svg xmlns="http://www.w3.org/2000/svg" width="16" height="16" viewBox="0 0 16 16"><path fill="#ff3d00" d="M4.419 14.982c-1.573-.562-2.715-1.96-3.168-3.879-.205-.87-.263-2.309-.093-2.309.057 0 .208.395.336.878.28 1.055.758 2.048 1.22 2.533.766.806 2.664 1.122 3.758.625.852-.387 1.198-1.306.827-2.201-.286-.691-.936-.922-2.146-.764 0 0-.741-.798-.978-2.215l.76.069c.916.083 1.607-.12 1.966-.576.337-.428.33-.594-.045-1.03-.542-.63-1.514-.47-3.482.57L2.381 5.02l.417-.317c1.043-.796 2.854-1.194 3.885-.854.94.31 1.628 1.54 1.444 2.577-.124.701-.686 1.683-1.12 1.958l-.375.237.517.233c.88.397 1.416.094 2.057-1.161.888-1.737 1.463-2.186 2.801-2.188.623-.001.845.064 1.3.383 1.134.795 1.752 2.44 1.616 4.307-.172 2.364-1.292 3.798-2.966 3.798-.919 0-1.511-.322-1.982-1.079-.415-.664-.601-1.98-.363-2.56.114-.277.134-.286.142-.064.014.408.478 1.072.905 1.293 1.047.541 2.55-.139 3.144-1.423.452-.975.21-2.856-.41-3.188-.13-.069-.45-.126-.712-.126-.557 0-.994.4-1.607 1.471-.212.37-.568.849-.792 1.063-.364.348-.494.39-1.222.39h-.814l.263.585c.377.837.359 2.197-.04 3.024-.352.732-1.166 1.472-1.817 1.653-.634.176-1.666.154-2.233-.049M7.486 3.67c-.36-.615-.582-1.762-.34-1.762.283.615.864 1.164 1.487 1.547 1.118.542 2.252.323 3.491-.673.273-.219.515-.374.537-.344.303.47.826.853.999 1.399 0 .23-.991.892-1.773 1.185-1.938.558-3.257.337-4.401-1.352m.976-1.421L9.724.85l1.402 1.298c-.48.395-.826 1.008-1.374 1.319-.433-.32-1.079-.696-1.29-1.218" class="colorff4500 svgShape" style="stroke-width:.999996"/></svg>
